_site/img/menu.svg

<svg xmlns="http://www.w3.org/2000/svg" width="40" height="40"><path fill="#fff" d="M9.5 13.999c0-.84.66-1.5 1.5-1.5h18c.84 0 1.5.66 1.5 1.5 0 .779-.66 1.5-1.5 1.5h-18c-.84 0-1.5-.72-1.5-1.5zm21 6c0 .782-.66 1.5-1.5 1.5h-18c-.84 0-1.5-.718-1.5-1.5 0-.838.66-1.5 1.5-1.5h18c.84 0 1.5.662 1.5 1.5zm0 6.002c0 .779-.66 1.5-1.5 1.5h-18c-.84 0-1.5-.721-1.5-1.5 0-.84.66-1.5 1.5-1.5h18c.84 0 1.5.659 1.5 1.5z"/></svg>

<?xml version="1.0" encoding="utf-8"?>
<!-- Generator: Adobe Illustrator 17.0.0, SVG Export Plug-In . SVG Version: 6.00 Build 0)  -->
<!DOCTYPE svg PUBLIC "-//W3C//DTD SVG 1.1//EN" "http://www.w3.org/Graphics/SVG/1.1/DTD/svg11.dtd">
<svg version="1.1" id="Layer_1" xmlns="http://www.w3.org/2000/svg" xmlns:xlink="http://www.w3.org/1999/xlink" x="0px" y="0px"
	 width="40px" height="40px" viewBox="0 0 40 40" enable-background="new 0 0 40 40" xml:space="preserve">
<path fill="#FFFFFF" d="M9.5,13.999c0-0.84,0.66-1.5,1.5-1.5h18c0.84,0,1.5,0.66,1.5,1.5c0,0.779-0.66,1.5-1.5,1.5H11
	C10.16,15.499,9.5,14.779,9.5,13.999z M30.5,19.999c0,0.782-0.66,1.5-1.5,1.5H11c-0.84,0-1.5-0.718-1.5-1.5
	c0-0.838,0.66-1.5,1.5-1.5h18C29.84,18.499,30.5,19.161,30.5,19.999z M30.5,26.001c0,0.779-0.66,1.5-1.5,1.5H11
	c-0.84,0-1.5-0.721-1.5-1.5c0-0.84,0.66-1.5,1.5-1.5h18C29.84,24.501,30.5,25.16,30.5,26.001z"/>
<path display="none" fill="#FFFFFF" d="M32.556,34.047c-1.388,1.271-3.586,1.271-4.969,0l-7.628-8.791l-7.633,8.791
	c-1.384,1.271-3.581,1.271-4.969,0c-1.271-1.393-1.271-3.586,0-4.969l7.976-9.016l-7.976-9.139c-1.271-1.384-1.271-3.576,0-4.969
	c1.388-1.271,3.586-1.271,4.969,0l7.633,8.791l7.628-8.791c1.384-1.271,3.581-1.271,4.969,0c1.388,1.393,1.388,3.586,0,4.969
	l-7.976,9.139l7.976,9.016C33.944,30.461,33.944,32.654,32.556,34.047z"/>
</svg>
